packages/strapi-icons/assets/icons/List.svg

<svg width="12" height="12" viewBox="0 0 12 12" fill="none" xmlns="http://www.w3.org/2000/svg">
<path d="M2.40002 0.0999999C2.40002 0.0447714 2.4448 0 2.50002 0H11.9C11.9553 0 12 0.0447715 12 0.1V2.3C12 2.35523 11.9553 2.4 11.9 2.4H2.50002C2.4448 2.4 2.40002 2.35523 2.40002 2.3V0.0999999Z" fill="#8E8EA9"/>
<path d="M0 4.90005C0 4.84482 0.0447715 4.80005 0.1 4.80005H9.5C9.55523 4.80005 9.6 4.84482 9.6 4.90005V7.10005C9.6 7.15528 9.55523 7.20005 9.5 7.20005H0.1C0.0447717 7.20005 0 7.15528 0 7.10005V4.90005Z" fill="#8E8EA9"/>
<path d="M2.50002 9.59998C2.4448 9.59998 2.40002 9.64475 2.40002 9.69998V11.9C2.40002 11.9552 2.4448 12 2.50002 12H11.9C11.9553 12 12 11.9552 12 11.9V9.69998C12 9.64475 11.9553 9.59998 11.9 9.59998H2.50002Z" fill="#8E8EA9"/>
</svg>

<svg width="12" height="12" viewBox="0 0 12 12" fill="none"
xmlns="http://www.w3.org/2000/svg"><path
d="m2.4.1.1-.1h9.4l.1.1v2.2l-.1.1H2.5l-.1-.1V.1ZM0
4.9l.1-.1h9.4l.1.1v2.2l-.1.1H.1L0 7.1V4.9ZM2.5
9.6l-.1.1v2.2l.1.1h9.4l.1-.1V9.7l-.1-.1H2.5Z" fill="#8E8EA9"/></svg>
